assets/img/first prize icon.svg

<svg height="600" preserveAspectRatio="xMidYMid meet" viewBox="0 0 450 449.999984" width="600" xmlns="http://www.w3.org/2000/svg" zoomAndPan="magnify"><g fill="#e6a6cd"><path d="m377.621094 367.339844c-.332032-.332032-5.957032-11.570313-78.78125-110.765625 50.644531-37.03125 64.878906-98.199219 47.335937-149.445313-6.953125-19.507812-14.234375-28.105468-17.546875-32.074218-3.640625-3.96875-4.632812-3.96875-5.292968-3.304688-.664063.660156-1.324219 1.320312.992187 6.28125 1.984375 4.960938 7.613281 13.554688 12.910156 32.070312 14.5625 53.234376-2.980469 109.441407-53.296875 140.855469-11.914062 7.273438-25.816406 13.554688-41.707031 17.191407-15.558594 3.636718-33.101563 5.289062-51.308594 3.304687-19.859375-2.3125-42.367187-8.925781-62.230469-23.804687-9.929687-7.273438-18.867187-16.53125-26.148437-27.113282-24.164063-34.386718-27.476563-80.675781-12.25-118.035156 5.296875-12.898438 12.25-25.460938 21.515625-35.710938 46.34375-52.902343 143.332031-60.835937 200.265625-6.28125 7.285156 6.941407 10.59375 11.570313 11.257813 11.242188.328124-.332031-2.320313-5.292969-9.269532-12.894531-51.308594-58.855469-157.566406-56.871094-209.867187.660156-10.261719 10.910156-18.203125 24.136719-24.164063 38.355469-17.875 41.988281-13.570312 92.246094 11.917969 129.609375 8.273437 11.902343 18.207031 22.484375 29.128906 30.417969 1.988281 1.652343 3.972657 2.976562 6.289063 4.296874-4.632813 24.46875-50.3125 139.863282-49.984375 139.53125-.328125.992188-.660157 2.316407-.660157 3.636719-.332031 2.316407-.332031 4.960938.332032 7.9375.328125 1.320313.992187 2.972657 1.984375 4.628907.992187 1.652343 2.316406 2.972656 3.972656 3.964843 3.308594 1.652344 6.621094 1.984375 9.929687 1.324219 2.648438-.660156 4.636719-1.324219 6.953126-2.316406 8.605468-3.964844 14.5625-9.917969 20.523437-13.222656 5.957031-3.308594 12.578125-4.628907 16.21875-2.316407 3.972656 1.984375 6.621094 7.605469 7.613281 13.886719 1.324219 6.613281 2.316406 14.878906 8.605469 22.152344 2.980469 3.308594 6.621094 5.621094 10.925781 6.945312 3.972656 1.320313 8.9375 1.652344 13.570313-.332031 3.972656-1.652344 6.953125-4.960937 8.605469-7.933594 1.65625-2.976562 2.648437-5.292969 3.640624-7.9375 1.988282-4.957031 3.3125-10.25 3.972657-15.207031 0-.332031 6.289062-131.265625 6.289062-131.925781 11.257813.660156 22.179688 0 32.773438-1.652344.992187 1.652344 1.984375 3.636719 2.976562 5.949219 19.53125 39.347656 26.484375 82.660156 42.371094 123.328125 1.988281 5.292969 4.304687 10.25 6.621094 15.542969 1.65625 2.972656 3.308593 5.617187 6.289062 8.265624 1.324219 1.320313 3.972657 2.972657 6.289063 3.304688 2.648437.660156 4.964844.332031 7.28125-.660156.996094-.664063 2.320312-1.324219 2.980468-2.316406.992188-.992188 1.65625-1.984376 2.316407-2.644532 6.289062-8.925781 6.621093-20.828125 9.269531-28.765625 1.324219-4.296875 3.972656-8.265625 6.289062-9.917969 2.648438-1.652343 5.296876-1.984374 8.605469-.660156 1.65625.660156 3.3125 1.652344 5.296875 2.972656 4.964844 3.636719 10.261719 9.921876 17.542969 13.886719 1.324219.664063 2.648437 1.324219 3.972656 1.65625 1.65625.660157 2.980469.988281 4.636719.988281 2.976562.332032 6.289062 0 9.265625-.660156 2.980469-.992187 5.960937-2.3125 8.277344-4.957031 2.316406-2.316406 3.972656-5.953125 4.632812-8.929687.664063-4.296876 0-7.933594-.992187-10.578126-1.324219-6.945312-4.304688-13.886718-8.9375-21.824218zm-200.929688 59.847656c-.992187 1.980469-1.652344 4.296875-2.644531 5.621094-.996094 1.320312-1.65625 2.3125-2.648437 2.644531-.996094.328125-2.320313.660156-3.972657 0-1.65625-.664063-3.640625-1.65625-4.964843-3.308594-.664063-.660156-1.324219-1.652343-1.65625-2.644531-.664063-.992188-.992188-2.3125-1.65625-3.636719-.992188-2.644531-1.652344-5.953125-2.316407-9.589843-.660156-3.636719-1.984375-7.933594-4.304687-11.902344-2.316406-3.96875-5.625-8.265625-10.589844-10.578125-4.964844-2.316407-10.261719-2.976563-15.226562-1.984375-4.964844.992187-8.9375 2.644531-12.910157 4.957031-7.945312 4.628906-13.242187 10.25-19.53125 13.226563-1.324219.660156-3.308593 1.324218-4.304687 1.652343-1.320313.332031-1.652344 0-1.652344 0s0 0-.332031-.328125c0-.332031-.332031-.664062-.332031-.992187-.328126-.992188-.328126-2.644531-.328126-3.96875 0-.660157.328126-1.324219.328126-2.3125 12.25-50.589844 40.386718-98.203125 41.710937-140.523438 19.859375 12.5625 41.042969 18.515625 59.914063 20.5.992187 0 1.652343 0 2.648437.332031-14.898437 60.503907-4.304687 114.730469-15.230469 142.835938zm197.949219-29.097656c0 .660156-.328125 1.324218-.992187 1.652344-.332032.660156-1.324219.992187-2.316407 1.324218-.992187.328125-2.648437.328125-3.972656.328125-.660156 0-1.324219-.328125-1.984375-.328125-.664062-.332031-1.324219-.664062-2.320312-.992187-2.976563-1.652344-6.289063-4.300781-9.929688-7.605469s-8.273438-6.945312-14.234375-9.257812c-2.976563-.992188-6.617187-1.984376-10.261719-1.652344-3.640625.328125-7.613281 1.984375-10.589844 3.964844-5.960937 4.628906-8.609374 10.582031-10.59375 16.203124-1.984374 5.953126-2.316406 11.574219-3.640624 16.203126-.664063 2.3125-1.324219 4.628906-2.316407 6.609374-.332031.992188-.996093 1.984376-1.324219 2.648438l-.332031.660156s0 0-.332031.328125c0 0-.328125 0-.660156 0-.332032 0 0 0-.992188-.660156-1.324218-.992187-2.648437-2.976563-3.644531-4.957031-2.316406-4.628906-4.632813-9.589844-6.949219-14.550782-17.214844-39.675781-27.476562-87.289062-49.320312-121.011718-.996094-1.65625-1.988282-3.308594-2.980469-4.628906 3.308594-.664063 6.621094-1.324219 9.929687-1.984376 17.214844-3.96875 32.441407-10.910156 45.679688-18.847656.664062-.332031.996094-.660156 1.65625-.992187 24.828125 54.886719 68.851562 97.539062 79.445312 125.3125 1.984376 4.628906 3.640626 9.917969 2.976563 12.234375zm0 0"/><path d="m230.648438 193.425781c-2.316407 0-4.964844-.332031-7.945313-.332031 1.65625-7.605469 3.3125-25.128906 4.636719-64.804688.332031-6.285156.332031-13.558593.332031-21.492187 0-4.296875 0-8.597656 0-12.894531 0-1.984375.328125-3.96875 0-5.953125-.332031-1.984375-.664063-3.304688-1.324219-4.628907-.664062-1.320312-1.65625-2.644531-2.648437-3.304687-1.324219-.992187-2.980469-1.652344-4.304688-1.652344-1.65625 0-2.980469 0-4.304687.988281l-4.632813 3.640626c-.660156.660156-1.65625 1.320312-2.316406 1.980468l-1.65625 1.65625-2.316406 2.3125c-3.640625 2.976563-6.953125 6.28125-9.929688 9.589844-5.960937 6.28125-11.253906 12.5625-15.558593 18.183594-8.605469 11.242187-13.570313 19.179687-12.578126 20.167968.992188.664063 7.613282-5.949218 17.542969-15.539062 4.964844-4.628906 10.921875-10.25 17.214844-15.871094 3.308594-2.972656 6.617187-5.621094 9.929687-8.59375l2.648438-1.984375.660156-.332031h.332032c.332031 0 .660156-.332031.660156-.332031.332031 0 .332031.332031.332031.664062 0 .328125 0 .328125-.332031.660157-.328125 3.96875-.328125 7.933593-.660156 11.574218-.332032 7.933594-.664063 15.207032-.992188 21.488282-1.324219 40.007812-.996094 57.53125.328125 65.136718-20.191406 0-45.015625 1.324219-45.347656 3.96875.332031 3.304688 42.039062 8.265625 61.570312 9.257813 35.417969 1.652343 36.410157-1.324219 36.742188-4.960938 0-3.636719-.664063-6.613281-36.082031-8.59375zm0 0"/></g></svg>

<svg xmlns="http://www.w3.org/2000/svg" xmlns:xlink="http://www.w3.org/1999/xlink" width="600" zoomAndPan="magnify" viewBox="0 0 450 449.999984" height="600" preserveAspectRatio="xMidYMid meet" version="1.0"><path fill="#e6a6cd" d="M 377.621094 367.339844 C 377.289062 367.007812 371.664062 355.769531 298.839844 256.574219 C 349.484375 219.542969 363.71875 158.375 346.175781 107.128906 C 339.222656 87.621094 331.941406 79.023438 328.628906 75.054688 C 324.988281 71.085938 323.996094 71.085938 323.335938 71.75 C 322.671875 72.410156 322.011719 73.070312 324.328125 78.03125 C 326.3125 82.992188 331.941406 91.585938 337.238281 110.101562 C 351.800781 163.335938 334.257812 219.542969 283.941406 250.957031 C 272.027344 258.230469 258.125 264.511719 242.234375 268.148438 C 226.675781 271.785156 209.132812 273.4375 190.925781 271.453125 C 171.066406 269.140625 148.558594 262.527344 128.695312 247.648438 C 118.765625 240.375 109.828125 231.117188 102.546875 220.535156 C 78.382812 186.148438 75.070312 139.859375 90.296875 102.5 C 95.59375 89.601562 102.546875 77.039062 111.8125 66.789062 C 158.15625 13.886719 255.144531 5.953125 312.078125 60.507812 C 319.363281 67.449219 322.671875 72.078125 323.335938 71.75 C 323.664062 71.417969 321.015625 66.457031 314.066406 58.855469 C 262.757812 0 156.5 1.984375 104.199219 59.515625 C 93.9375 70.425781 85.996094 83.652344 80.035156 97.871094 C 62.160156 139.859375 66.464844 190.117188 91.953125 227.480469 C 100.226562 239.382812 110.160156 249.964844 121.082031 257.898438 C 123.070312 259.550781 125.054688 260.875 127.371094 262.195312 C 122.738281 286.664062 77.058594 402.058594 77.386719 401.726562 C 77.058594 402.71875 76.726562 404.042969 76.726562 405.363281 C 76.394531 407.679688 76.394531 410.324219 77.058594 413.300781 C 77.386719 414.621094 78.050781 416.273438 79.042969 417.929688 C 80.035156 419.582031 81.359375 420.902344 83.015625 421.894531 C 86.324219 423.546875 89.636719 423.878906 92.945312 423.21875 C 95.59375 422.558594 97.582031 421.894531 99.898438 420.902344 C 108.503906 416.9375 114.460938 410.984375 120.421875 407.679688 C 126.378906 404.371094 133 403.050781 136.640625 405.363281 C 140.613281 407.347656 143.261719 412.96875 144.253906 419.25 C 145.578125 425.863281 146.570312 434.128906 152.859375 441.402344 C 155.839844 444.710938 159.480469 447.023438 163.785156 448.347656 C 167.757812 449.667969 172.722656 450 177.355469 448.015625 C 181.328125 446.363281 184.308594 443.054688 185.960938 440.082031 C 187.617188 437.105469 188.609375 434.789062 189.601562 432.144531 C 191.589844 427.1875 192.914062 421.894531 193.574219 416.9375 C 193.574219 416.605469 199.863281 285.671875 199.863281 285.011719 C 211.121094 285.671875 222.042969 285.011719 232.636719 283.359375 C 233.628906 285.011719 234.621094 286.996094 235.613281 289.308594 C 255.144531 328.65625 262.097656 371.96875 277.984375 412.636719 C 279.972656 417.929688 282.289062 422.886719 284.605469 428.179688 C 286.261719 431.152344 287.914062 433.796875 290.894531 436.445312 C 292.21875 437.765625 294.867188 439.417969 297.183594 439.75 C 299.832031 440.410156 302.148438 440.082031 304.464844 439.089844 C 305.460938 438.425781 306.785156 437.765625 307.445312 436.773438 C 308.4375 435.78125 309.101562 434.789062 309.761719 434.128906 C 316.050781 425.203125 316.382812 413.300781 319.03125 405.363281 C 320.355469 401.066406 323.003906 397.097656 325.320312 395.445312 C 327.96875 393.792969 330.617188 393.460938 333.925781 394.785156 C 335.582031 395.445312 337.238281 396.4375 339.222656 397.757812 C 344.1875 401.394531 349.484375 407.679688 356.765625 411.644531 C 358.089844 412.308594 359.414062 412.96875 360.738281 413.300781 C 362.394531 413.960938 363.71875 414.289062 365.375 414.289062 C 368.351562 414.621094 371.664062 414.289062 374.640625 413.628906 C 377.621094 412.636719 380.601562 411.316406 382.917969 408.671875 C 385.234375 406.355469 386.890625 402.71875 387.550781 399.742188 C 388.214844 395.445312 387.550781 391.808594 386.558594 389.164062 C 385.234375 382.21875 382.253906 375.277344 377.621094 367.339844 Z M 176.691406 427.1875 C 175.699219 429.167969 175.039062 431.484375 174.046875 432.808594 C 173.050781 434.128906 172.390625 435.121094 171.398438 435.453125 C 170.402344 435.78125 169.078125 436.113281 167.425781 435.453125 C 165.769531 434.789062 163.785156 433.796875 162.460938 432.144531 C 161.796875 431.484375 161.136719 430.492188 160.804688 429.5 C 160.140625 428.507812 159.8125 427.1875 159.148438 425.863281 C 158.15625 423.21875 157.496094 419.910156 156.832031 416.273438 C 156.171875 412.636719 154.847656 408.339844 152.527344 404.371094 C 150.210938 400.402344 146.902344 396.105469 141.9375 393.792969 C 136.972656 391.476562 131.675781 390.816406 126.710938 391.808594 C 121.746094 392.800781 117.773438 394.453125 113.800781 396.765625 C 105.855469 401.394531 100.558594 407.015625 94.269531 409.992188 C 92.945312 410.652344 90.960938 411.316406 89.964844 411.644531 C 88.644531 411.976562 88.3125 411.644531 88.3125 411.644531 C 88.3125 411.644531 88.3125 411.644531 87.980469 411.316406 C 87.980469 410.984375 87.648438 410.652344 87.648438 410.324219 C 87.320312 409.332031 87.320312 407.679688 87.320312 406.355469 C 87.320312 405.695312 87.648438 405.03125 87.648438 404.042969 C 99.898438 353.453125 128.035156 305.839844 129.359375 263.519531 C 149.21875 276.082031 170.402344 282.035156 189.273438 284.019531 C 190.265625 284.019531 190.925781 284.019531 191.921875 284.351562 C 177.023438 344.855469 187.617188 399.082031 176.691406 427.1875 Z M 374.640625 398.089844 C 374.640625 398.75 374.3125 399.414062 373.648438 399.742188 C 373.316406 400.402344 372.324219 400.734375 371.332031 401.066406 C 370.339844 401.394531 368.683594 401.394531 367.359375 401.394531 C 366.699219 401.394531 366.035156 401.066406 365.375 401.066406 C 364.710938 400.734375 364.050781 400.402344 363.054688 400.074219 C 360.078125 398.421875 356.765625 395.773438 353.125 392.46875 C 349.484375 389.164062 344.851562 385.523438 338.890625 383.210938 C 335.914062 382.21875 332.273438 381.226562 328.628906 381.558594 C 324.988281 381.886719 321.015625 383.542969 318.039062 385.523438 C 312.078125 390.152344 309.429688 396.105469 307.445312 401.726562 C 305.460938 407.679688 305.128906 413.300781 303.804688 417.929688 C 303.140625 420.242188 302.480469 422.558594 301.488281 424.539062 C 301.15625 425.53125 300.492188 426.523438 300.164062 427.1875 L 299.832031 427.847656 C 299.832031 427.847656 299.832031 427.847656 299.5 428.175781 C 299.5 428.175781 299.171875 428.175781 298.839844 428.175781 C 298.507812 428.175781 298.839844 428.175781 297.847656 427.515625 C 296.523438 426.523438 295.199219 424.539062 294.203125 422.558594 C 291.886719 417.929688 289.570312 412.96875 287.253906 408.007812 C 270.039062 368.332031 259.777344 320.71875 237.933594 286.996094 C 236.9375 285.339844 235.945312 283.6875 234.953125 282.367188 C 238.261719 281.703125 241.574219 281.042969 244.882812 280.382812 C 262.097656 276.414062 277.324219 269.472656 290.5625 261.535156 C 291.226562 261.203125 291.558594 260.875 292.21875 260.542969 C 317.046875 315.429688 361.070312 358.082031 371.664062 385.855469 C 373.648438 390.484375 375.304688 395.773438 374.640625 398.089844 Z M 374.640625 398.089844 " fill-opacity="1" fill-rule="nonzero"/><path fill="#e6a6cd" d="M 230.648438 193.425781 C 228.332031 193.425781 225.683594 193.09375 222.703125 193.09375 C 224.359375 185.488281 226.015625 167.964844 227.339844 128.289062 C 227.671875 122.003906 227.671875 114.730469 227.671875 106.796875 C 227.671875 102.5 227.671875 98.199219 227.671875 93.902344 C 227.671875 91.917969 228 89.933594 227.671875 87.949219 C 227.339844 85.964844 227.007812 84.644531 226.347656 83.320312 C 225.683594 82 224.691406 80.675781 223.699219 80.015625 C 222.375 79.023438 220.71875 78.363281 219.394531 78.363281 C 217.738281 78.363281 216.414062 78.363281 215.089844 79.351562 L 210.457031 82.992188 C 209.796875 83.652344 208.800781 84.3125 208.140625 84.972656 L 206.484375 86.628906 L 204.167969 88.941406 C 200.527344 91.917969 197.214844 95.222656 194.238281 98.53125 C 188.277344 104.8125 182.984375 111.09375 178.679688 116.714844 C 170.074219 127.957031 165.109375 135.894531 166.101562 136.882812 C 167.09375 137.546875 173.714844 130.933594 183.644531 121.34375 C 188.609375 116.714844 194.566406 111.09375 200.859375 105.472656 C 204.167969 102.5 207.476562 99.851562 210.789062 96.878906 L 213.4375 94.894531 L 214.097656 94.5625 L 214.429688 94.5625 C 214.761719 94.5625 215.089844 94.230469 215.089844 94.230469 C 215.421875 94.230469 215.421875 94.5625 215.421875 94.894531 C 215.421875 95.222656 215.421875 95.222656 215.089844 95.554688 C 214.761719 99.523438 214.761719 103.488281 214.429688 107.128906 C 214.097656 115.0625 213.765625 122.335938 213.4375 128.617188 C 212.113281 168.625 212.441406 186.148438 213.765625 193.753906 C 193.574219 193.753906 168.75 195.078125 168.417969 197.722656 C 168.75 201.027344 210.457031 205.988281 229.988281 206.980469 C 265.40625 208.632812 266.398438 205.65625 266.730469 202.019531 C 266.730469 198.382812 266.066406 195.40625 230.648438 193.425781 Z M 230.648438 193.425781 " fill-opacity="1" fill-rule="nonzero"/></svg>
